X: 19090
T: Irish Girl, The
R: slip jig
M: 9/8
K: Amixolydian
cBA AEA Aed|cBc Ace ded|BcA AEA Ad=c|BGB gec ded|
BcA AEA Aed|cBc Ace ded|BcA AEA Ad=c|BGB gec dBG||
cde efd ~e3|cde efd g/fed|cde efd efg|agf g/f/ec dBG|
cde efd ~e3|cde efd g/f/ed|cde efd efg|agf g/f/ec ded||

